public/library/merkl-icon-dark.svg

<svg width="32" height="32" viewBox="0 0 32 32" fill="none" xmlns="http://www.w3.org/2000/svg">
<g clip-path="url(#clip0_207_156)">
<path d="M24.2247 22.9183C22.2147 23.1899 20.1687 22.9006 18.3129 22.0821C16.4571 21.2637 14.8637 19.9482 13.7088 18.2809C12.5539 16.6135 11.8825 14.6593 11.7688 12.6343C11.655 10.6092 12.1034 8.59216 13.0643 6.80598C11.199 7.05807 9.42951 7.78461 7.92525 8.91608C6.42098 10.0475 5.23223 11.5461 4.47272 13.2684C3.71321 14.9906 3.40835 16.879 3.58731 18.7527C3.76627 20.6265 4.42307 22.423 5.49486 23.9704C6.56665 25.5177 8.01758 26.7641 9.70882 27.5904C11.4001 28.4167 13.2751 28.7951 15.1544 28.6896C17.0337 28.584 18.8545 27.998 20.4426 26.9875C22.0307 25.977 23.3329 24.5759 24.2247 22.9183Z" stroke="#7653FF" stroke-width="1.5" stroke-linecap="round" stroke-linejoin="round"/>
<path d="M22.1181 12.4558L19.4403 11.2176L22.13 10.1958L22.3775 7.27218L24.2565 9.58296L27.0876 9.01366L25.5593 11.4639L27.0621 14.0353L24.238 13.2392L22.3359 15.398L22.1181 12.4558Z" stroke="#DE8259" stroke-linecap="round" stroke-linejoin="round"/>
</g>
<defs>
<clipPath id="clip0_207_156">
<rect width="32" height="32" fill="white"/>
</clipPath>
</defs>
</svg>

<svg xmlns="http://www.w3.org/2000/svg" width="32" height="32" fill="none" viewBox="0 0 32 32"><g stroke-linecap="round" stroke-linejoin="round" clip-path="url(#a)"><path stroke="#7653ff" stroke-width="1.5" d="M24.225 22.918a11 11 0 0 1-11.16-16.112 11 11 0 1 0 11.16 16.112"/><path stroke="#de8259" d="m22.118 12.456-2.678-1.238 2.69-1.022.248-2.924 1.878 2.311 2.832-.57-1.529 2.45 1.503 2.572-2.824-.796-1.902 2.159z"/></g><defs><clipPath id="a"><path fill="#fff" d="M0 0h32v32H0z"/></clipPath></defs></svg>
